X: 1
T: Piper's Daughter, The
M: 6/8
L: 1/8
R: jig
K: Ddor
DED GED|~A2A GED|d2d cde|dcA AGE|
GAG GAc|ded cde|dcA dcA|GED D3|
DED GED|~A2A GED|d2d cde|dcA AGE|
GAG GAc|d2e gaa|gee dcA|GED D3|
~a2a age|ded dcA|G2A c2d|e2g geg|
~a2a age|ded dcA|dcA dcA|GED D3|
a3 age|d3 dcA|G2A c2d|e2g geg|
~a2a age|d2e gaa|gee dcA|GED D3|
